!!! OTL: Berkowitz507
!!! Chapter: 1
!!! Section: IV
!!! Page: 127
!!! Mode: 
!!! Encoder: DJB
**kern
*staff1
*I"Piano
=1-
*clefG2
*k[b-e-a-]
*c:
*M3/4
8c/L
8en/J
8g/L
8cc/J
8g/L
8e/J
=2
8d/L
8f/J
8an/L
8a-/J
8an/
8r
=3
8Bn/L
8d/J
8f/L
8an/J
8g/L
8f/J
=4
8e-/L
8g/J
8cc\L
8bn\J
8cc\
8r
=5
8cc/L
8f#/J
8d/L
8an/J
8cc\L
16b-\L
16a-\JJ
=6
8b-/L
8g/J
8d/L
8g/J
8d/
8r
=7
!!linebreak:original
8c#/L
8en/J
8g/L
8b-/J
8an/L
8g/J
=8
8f#/L
8an/J
8dd\L
8cc#\J
8dd\
8r
=9
8bn\L
8dd\J
8f/L
8e-/J
8f/L
8d/J
=10
8e-/L
8g/J
8cc/L
8a-/J
8f#/L
8c/J
=11
8e-/L
8g/J
8bn\L
8cc\J
8dd/L
8f/J
=12
8e-/L
8g/J
8cc\
8r
4r
=13
8f/L
8a-/J
8dd\L
8a-\J
8f/L
8a-/J
=14
!!linebreak:original
8g/L
8dd/J
8b-/L
8f/J
8e-/L
8cc/J
=15
8d/L
8cc/J
8e-/L
8c/J
8f/L
8bn/J
=16
2c/
4r
==
*-
